package/converter/svg/regular/dice-two.svg

<svg xmlns="http://www.w3.org/2000/svg" viewBox="0 0 448 512"><!-- Font Awesome Pro 6.0.0-alpha2 by @fontawesome - https://fontawesome.com License - https://fontawesome.com/license (Commercial License) --><path d="M128 128C110.375 128 96 142.375 96 160S110.375 192 128 192S160 177.625 160 160S145.625 128 128 128ZM384 32H64C28.625 32 0 60.625 0 96V416C0 451.375 28.625 480 64 480H384C419.375 480 448 451.375 448 416V96C448 60.625 419.375 32 384 32ZM400 416C400 424.875 392.875 432 384 432H64C55.125 432 48 424.875 48 416V96C48 87.125 55.125 80 64 80H384C392.875 80 400 87.125 400 96V416ZM320 320C302.375 320 288 334.375 288 352S302.375 384 320 384S352 369.625 352 352S337.625 320 320 320Z "></path></svg>

<svg xmlns="http://www.w3.org/2000/svg" viewBox="0 0 448 512"><!--! Font Awesome Pro 6.6.0 by @fontawesome - https://fontawesome.com License - https://fontawesome.com/license (Commercial License) Copyright 2024 Fonticons, Inc. --><path d="M384 80c8.8 0 16 7.2 16 16l0 320c0 8.8-7.2 16-16 16L64 432c-8.8 0-16-7.2-16-16L48 96c0-8.8 7.2-16 16-16l320 0zM64 32C28.7 32 0 60.7 0 96L0 416c0 35.3 28.7 64 64 64l320 0c35.3 0 64-28.7 64-64l0-320c0-35.3-28.7-64-64-64L64 32zM352 352a32 32 0 1 0 -64 0 32 32 0 1 0 64 0zM128 192a32 32 0 1 0 0-64 32 32 0 1 0 0 64z"/></svg>
